www/assets/icons/safety_check.svg

<svg xmlns="http://www.w3.org/2000/svg" width="24" height="24" viewBox="0 0 24 24" fill='currentColor'><path d="M12 2 4 5v6.09c0 5.05 3.41 9.76 8 10.91 4.59-1.15 8-5.86 8-10.91V5zm0 15c-2.76 0-5-2.24-5-5s2.24-5 5-5 5 2.24 5 5-2.24 5-5 5m1.65-2.65L11.5 12.2V9h1v2.79l1.85 1.85z"/></svg>

<svg width="24" height="24" viewBox="0 0 24 24" xmlns="http://www.w3.org/2000/svg" fill='currentColor'><path d="M12 2L4 5V11.09C4 16.14 7.41 20.85 12 22C16.59 20.85 20 16.14 20 11.09V5L12 2ZM12 17C9.24 17 7 14.76 7 12C7 9.24 9.24 7 12 7C14.76 7 17 9.24 17 12C17 14.76 14.76 17 12 17ZM13.65 14.35L11.5 12.2V9H12.5V11.79L14.35 13.64L13.65 14.35Z"/></svg>
